X:1
T:Over the Dead-Line
T:Over the Dead-Line
T:Henry Lake Gilmour
T:Virginia Williams Moyer, 1895
T:Public Domain Courtesy of the Cyber Hymnal™
T:Public Domain Courtesy of the Cyber Hymnal™
C:Henry Lake Gilmour
Z:Public Domain
Z:Courtesy of the Cyber Hymnal™
%%score ( 1 2 ) ( 3 4 )
L:1/8
Q:1/4=85
M:6/8
K:G
V:1 treble 
V:2 treble 
V:3 bass 
V:4 bass 
V:1
 D | [DG]>[DG][DG] [GB]>[DA][DG] | [EG]>[DF][CE] [B,D]2 D | [DG]>[DG][DG] [^CG][CF][CG] | %4
w: 1.~O|bro- ther, the Sav- ior is|call- ing for thee, Long,|long has He called thee in|
w: 2.~O|bro- ther, thine ears have been|deaf to His voice, Thine|eyes to His glo- ry been|
w: 3.~O|bro- ther, the Spir- it is|striv- ing with thee; What|if He should strive ne- ver|
w: 4.~O|bro- ther, God’s pa- tience may|wea- ry some day, And|leave thy sad soul in the|
 [=CA]3- [CA]2 D | [DG]>[DG][DG] [GB]>[DA][DG] | [EG]>[DF][CE] [B,D]2 [DG] | %7
w: vain; * He|called thee when joy lent its|crown to thy days, He|
w: dim; * The|calls of thy Sav- ior have|so wear- ied thee, O|
w: more, * But|leave thee a- lone, in thy|dark- ness to dwell, In|
w: blast; * By|will- ful re- sist- ance you’ve|drift- ed a- way, ~|
 [DF]>[DF][DF] [DF][DE][DF] | [DG]3- [DG]2 ||"^Refrain" [B,G] | [Ec]>[Ec][Ec] [Ec]>[DB][CA] | %11
w: called thee in sor- row and|pain. *|||
w: what if they should wea- ry|Him? *|O|turn, while the Sav- ior in|
w: sight of the heav- en- ly|shore? *|||
w: O- ver the dead- line at|last. *|||
 [DB]>[CA][DB] [CA]<[B,G][B,D] | [DG]>[DG][DG] [Gd]2 [GB] | [FA]3- [FA]2 [Fc] | %14
w: |||
w: mer- cy is wait- ing, And|steer for the har- bor|light; * For|
w: |||
w: |||
 [GB]>[GB][GB] [GB]>[DA][DG] | [EA]>[EG][CE] [B,E] [B,D]2 | [A,F]>[DF][DF] .[DF].[DE].[DF] | %17
w: |||
w: how do you know but your|soul may be drift- ing|O- ver the dead- line to-|
w: |||
w: |||
 [DG]3- [DG]2 |] %18
w: |
w: night? *|
w: |
w: |
V:2
 D | x6 | x5 D | x6 | x5 D | x6 | x6 | x6 | x5 || x | x6 | x6 | x6 | x6 | x6 | x6 | x6 | x5 |] %18
V:3
 [G,B,] | [G,B,]>[G,B,][G,B,] [G,D]>[G,C][G,B,] | [C,C]>[C,G,][C,G,] [G,,G,]2 F, | %3
 [B,,G,]>[B,,G,][B,,G,] [A,,A,][A,,A,][A,,A,] | [D,F,]3- [D,F,]2 [F,C] | %5
 [G,B,]>[G,B,][G,B,] [G,D]>[G,C][G,B,] | [C,C]>[C,G,][C,G,] [G,,G,]2 [B,,G,] | %7
 [D,A,]>[D,A,][D,A,] [D,C][D,C][D,C] | [G,B,]3- [G,B,]2 || G, | %10
 [C,G,]>[C,G,][C,G,] [C,G,]>[C,G,][C,G,] | [G,,G,]>[G,,G,][G,,G,] [G,,D,]<[G,,D,]G, | %12
 [G,B,]>[G,B,][G,B,] [G,B,]2 [G,D] | [D,D]3- [D,D]2 [D,D] | [G,D]>[G,D][G,D] [G,D]>[G,C][G,B,] | %15
 [C,C]>[C,C][C,G,] [G,,G,] [G,,G,]2 | D,>[D,A,][D,C] .[D,C].[D,C].[D,C] | [G,,B,]3- [G,,B,]2 |] %18
V:4
 x | x6 | x5 (D,/C,/) | x6 | x6 | x6 | x6 | x6 | x5 || G, | x6 | x5 G, | x6 | x6 | x6 | x6 | %16
 D,3/2 x9/2 | x5 |] %18

